X:10
T: Maria wollt auswandern (Band 1), S. 36
N: P0784
O: Lothringen
S: PINCK, Louis: Verklingende Weisen, Bd 1, Metz 1928]
R: geistliche, religiöse Lieder]
M: 4/4
L: 1/8
K: F
C2 | F2F2G2c2 | AGF2z3
F | A2GEG2FD | C4z2
C2 | CFFFGGc2 | c6
d2 | c2B2AGFG | A2G2F2

